telier/img/card.svg

<svg width="10" height="8" viewBox="0 0 10 8" fill="none" xmlns="http://www.w3.org/2000/svg">
<path d="M9 0L1 0C0.4485 0 2.06733e-07 0.4485 4.60944e-07 1L3.22661e-06 7C3.48082e-06 7.5515 0.448503 8 1 8H9C9.5515 8 10 7.5515 10 7L10 1C10 0.4485 9.5515 0 9 0ZM1 1L9 1L9 2L1 2L1 1ZM1 7L1 4L9.0005 4L9.001 7H1Z" fill="#0047FF"/>
<path d="M2 5H5.5L5.5 6H2L2 5Z" fill="#0047FF"/>
</svg>

<svg width="10" height="8" fill="none" xmlns="http://www.w3.org/2000/svg"><path d="M9 0H1C.449 0 0 .449 0 1v6c0 .551.449 1 1 1h8c.552 0 1-.449 1-1V1c0-.551-.448-1-1-1zM1 1h8v1H1V1zm0 6V4h8l.001 3H1z" fill="#0047FF"/><path d="M2 5h3.5v1H2V5z" fill="#0047FF"/></svg>
